X:1
T:Rig-A-Jig
T:Rig-A-Jig
T:Rag
T:NAT D. AYER
T: Performing rights reserved 
T:Copyright 1912 by JEROME H. REMICK &amp; Co. New York &amp; Detroit
T:Copyright 1912 by JEROME H. REMICK &amp; Co. New York &amp; Detroit
T:Copyright 1912 by JEROME H. REMICK &amp; Co. New York &amp; Detroit
T:Copyright 1912 by JEROME H. REMICK &amp; Co. New York &amp; Detroit
C:NAT D. AYER
Z:Copyright 1912 by JEROME H. REMICK & Co. New York & Detroit
%%score { ( 1 3 ) | ( 2 4 ) }
L:1/8
Q:1/4=90
M:2/4
K:C
V:1 treble nm="Piano" snm="Pno."
V:3 treble 
V:2 bass 
V:4 bass 
V:1
"^Slow and well marked"!ff! !>!E/AB/ !>!c/B/A | !>!B/cd/ !>!e/cA/ | !>!B!>!c!>!d!>!^d | %3
 !>!e z !^![E^GBe] z |:!mf! !>![^c^d]/[ce]/[Aa]/[cd]/ [ce]/[Aa]/[cd]/[ce]/ | %5
 [Aa]/[^c^d]/[ce]/!>![Aa]/- [Aa]2 | !>![^F^G]/[FA]/[Fe]/[FG]/ [FA]/[Fe]/[FG]/[FA]/ | %7
 !>![^Fe]/[F^G]/[FA]/!>![Fe]/- [Fe]2 | !>![^A^c]/[Bd]/[Gg]/[Ac]/ [Bd]/[Gg]/[Ac]/[Bd]/ | %9
 !>![Gg]/[^A^c]/[Bd]/!>![Gg]/- [Gg]2 |{gab} c'/[cc']/ z/ [Bb]/z/[_B_b]/z/[Aa]/ | %11
 z/ [_A_a]/z/[Gg]/z/[^F^f]/z/[Gg]/ |!mf! !>![^c^d]/[ce]/[Aa]/[cd]/ [ce]/[Aa]/[cd]/[ce]/ | %13
 [Aa]/[^c^d]/[ce]/!>![Aa]/- [Aa]2 | !>![^F^G]/[FA]/[Fe]/[FG]/ [FA]/[Fe]/[FG]/[FA]/ | %15
 !>![^Fe]/[F^G]/[FA]/!>![Fe]/- [Fe]2 | [Ac]/[AB]/[Ac]/!>![Ad]/- [Ad]/[Ac]/[Ad]/[_A^d]/ | %17
 [Gce]/[c^d]/[ce]/!>![A^cea]/- [Acea]/[Aceg]/[Ace]/[Ac]/ | %18
 [^F=cd]/[Fc_d]/[Fc=d]/!>![=FBe]/- [FBe]/[FBd]/!>![FBe] |1 %19
 !>![EGc]{/^f} !>![Gg]{/f}!>![Gg]{/f}!>![Gg] :|2 [EGc]2- [EGc]/[^F^f]/[Gg]/[^G^g]/ || %21
!ff!{A^ce} [Aa]/>[^ce]/[Bb]/>[ce]/ [Aa]/[Bceb][Bce]/ | [A^cea]/[Bceb][ce]/ [Aa]2 | %23
{=c'^c'} [=c'd']/>e'/[c'^f']/>d'/ [c'e']<[c'f'] |{c^c} [=cd]/>e/[c^f]/>d/ e<f | %25
{GBd} [Gg]/>[Bd]/[ABda]/>[Bd]/ [Gg]/[ABda][Bd]/ | [Gg]/[ABda][Bd]/ [Gg]2 | %27
{/_b} [ebc']/>[bd']/[ebe']/>c'/ [ebd']<[be'] |{/_B} [EBc]/>[Bd]/[EBe]/>c/ [EBd]<[Be] | %29
 (3[cc']/a/f/[dd']/>[fa]/ [cc']/>[fa]/[dd']/>[fa]/ | %30
 (3[cc']/a/f/[dd']/>[fa]/ [cc']/>[fa]/[dd']/>[^d^d']/ | %31
 (3[ee']/c'/g/!8va(![aa']/>[c'e']/ [gg']/>[c'e']/[aa']/>[c'e']/ | %32
 [gg']/[ac'e'a'][c'e']/ [gg']/>[c'e']/[aa']/>[bb']/ | %33
 (3z/ [c'c'']/[c'c'']/ z/ [aa']/z/[^f^f']/z/[^d^d']/ | %34
 (3z/!8va)! [cc']/[cc']/"^loco""_loco" z/ [Aa]/z/[^F^f]/z/[^D^d]/ | %35
 (3z/ [Cc]/[Cc]/ (3z/ [A,A]/[A,A]/ (3z/ [^F,^F]/[F,F]/ (3z/ ^D/D/ | z2 !^![cegc'] z | %37
!mf! !>![^c^d]/[ce]/[Aa]/[cd]/ [ce]/[Aa]/[cd]/[ce]/ | [Aa]/[^c^d]/[ce]/!>![Aa]/- [Aa]2 | %39
 !>![^F^G]/[FA]/[Fe]/[FG]/ [FA]/[Fe]/[FG]/[FA]/ | !>![^Fe]/[F^G]/[FA]/!>![Fe]/- [Fe]2 | %41
 !>![^A^c]/[Bd]/[Gg]/[Ac]/ [Bd]/[Gg]/[Ac]/[Bd]/ | !>![Gg]/[^A^c]/[Bd]/!>![Gg]/- [Gg]2 | %43
{gab} c'/[cc']/ z/ [Bb]/z/[_B_b]/z/[Aa]/ | z/ [_A_a]/z/[Gg]/z/[^F^f]/z/[Gg]/ | %45
 !>![^c^d]/[ce]/[Aa]/[cd]/ [ce]/[Aa]/[cd]/[ce]/ | [Aa]/[^c^d]/[ce]/!>![Aa]/- [Aa]2 | %47
 !>![^F^G]/[FA]/[Fe]/[FG]/ [FA]/[Fe]/[FG]/[FA]/ | !>![^Fe]/[F^G]/[FA]/!>![Fe]/- [Fe]2 | %49
 [Ac]/[AB]/[Ac]/!>![Ad]/- [Ad]/[Ac]/[Ad]/[_A^d]/ | %50
 [Gce]/[c^d]/[ce]/!>![A^cea]/- [Acea]/[Aceg]/[Ace]/[Ac]/ | %51
 [^F=cd]/[Fc_d]/[Fc=d]/!>![=FBe]/- [FBe]/[FBd]/!>![FBe] | !>![EGc]2 !^![CEGc] z || %53
[K:F][M:2/4]!f! x4 | !>![A,A][Ace]/[Acea]/- [Acea]/[Ace]/[Acea] | %55
 [F,F]/[^F,^F]/[G,G]/[^G,^G]/ [A,A]<[=F=f] | !>![Dd][dfa]/[dfad']/- [dfad']/[dfa]/[cc']/[=B=b]/ | %57
 [e_b]/[ec']/[ebe']/[eb]/ [ec']/[ebe']/[eb]/[ec']/ | [ebe']/[eb]/[ec']/[ebe']/- [ebe']2 | %59
 [cf^g]/[da]/[dfd']/[dg]/ [da]/[dfd']/[dg]/[da]/ | %60
 [dfd']/[d^g]/[da]/[dfd']/- [dfd']/[cc']/[Aa]/[Ff]/ | x4 | %62
 !>![A,A][Ace]/[Acea]/- [Acea]/[Ace]/[Acea] | [F,F]/[^F,^F]/[G,G]/[^G,^G]/ [A,A]<[=F=f] | %64
 !>![Dd][dfa]/[dfad']/- [dfad']/[cbc']/[dbd']/[ebe']/ | %65
 [fbf']/[ebe']/[fbf']/[gbg']/- [gbg']/[fbf']/[dbd'] | %66
 [cfc']/[=Bf=b]/[cfc']/[d^fd']/- [dfd']/[cfc']/[Afa] | %67
 [G=Bdg]/[^FBd^f]/[GBdg]/[cegc']/- [cegc']/[Acea]/[G_Beg] | [FAcf]4 || %69
[K:C] [Ada][Ada]/f/ [A^cg][Acg]/e/ | [Af]/d/[Ge]/^c/ [Fd] z | D/E/F/G/ [DFA][DFA] | %72
 [DFB][DFB] [DFA]2 | [Gcg][Gcg]/e/ [G=Bf][GBf]/d/ | [Ge]/c/[Fd]/=B/ [Ec] z | z4 | z4 | %77
 [cegc'][cegc']- [cegc']/[ceg]/[cec']/[ceg]/ | [_c_e_ac'][ceac']- [ceac']/[cea]/[ceac']/[cea]/ | %79
 [df_ac'][dfac']- [dfac']/[dfa]/[dfac']/[dfa]/ | [cegc'] z !^![cegc'] z ||[K:F]!ff! x4 | %82
 !>![A,A][Ace]/[Acea]/- [Acea]/[Ace]/[Acea] | [F,F]/[^F,^F]/[G,G]/[^G,^G]/ [A,A]<[=F=f] | %84
 !>![Dd][dfa]/[dfad']/- [dfad']/[dfa]/[cc']/[=B=b]/ | %85
 [e_b]/[ec']/[ebe']/[eb]/ [ec']/[ebe']/[eb]/[ec']/ | [ebe']/[eb]/[ec']/[ebe']/- [ebe']2 | %87
 [cf^g]/[da]/[dfd']/[dg]/ [da]/[dfd']/[dg]/[da]/ | %88
 [dfd']/[d^g]/[da]/[dfd']/- [dfd']/[cc']/[Aa]/[Ff]/ | x4 | %90
 !>![A,A][Ace]/[Acea]/- [Acea]/[Ace]/[Acea] | [F,F]/[^F,^F]/[G,G]/[^G,^G]/ [A,A]<[=F=f] | %92
 !>![Dd][dfa]/[dfad']/- [dfad']/[cbc']/[dbd']/[ebe']/ | %93
!<(! [fbf']/[ebe']/[fbf']/[gbg']/- [gbg']/[fbf']/[dbd']!<)! | %94
 [cfc']/[=Bf=b]/[cfc']/[d^fd']/- [dfd']/[cfc']/[Afa] | %95
 [G=Bdg]/[^FBd^f]/[GBdg]/[cegc']/- [cegc']/[Acea]/[G_Beg] | [FAcf]3 z |] %97
V:2
 !>!E,/A,B,/ !>!C/B,/A, | !>!B,/CD/ !>!E/CA,/ | !>!B,!>!C!>!D!>!^D | !>!E z !^![E,,E,] z |: %4
 [E,E][A,^CEG] [A,,A,][A,CEG] | [^C,^C][A,^CEG] [A,,A,][A,CEG] | %6
 [A,,A,][^F,A,=CD] [D,,D,][F,A,CD] | [A,,A,][^F,A,CD] [D,,D,][F,A,CD] | %8
 [G,,G,][G,B,D=F] [G,,,G,,][G,B,DF] | [G,,G,][G,B,DF] [G,,,G,,][G,B,DF] |"^L.H." x4 | x4 | %12
 [E,E][A,^CEG] [A,,A,][A,CEG] | [^C,^C][A,^CEG] [A,,A,][A,CEG] | %14
 [A,,A,][^F,A,=CD] [D,,D,][F,A,CD] | [A,,A,][^F,A,CD] [D,,D,][F,A,CD] | %16
 [=F,,=F,][F,A,C] [^F,,^F,][F,A,C] | [G,,G,][G,CE] [A,,A,][G,A,^C] | %18
 [A,,A,][_A,,_A,] [G,,G,][G,,G,] |1 [C,C]!>![F,F]!>![E,E]!>![D,D] :|2 [C,C][G,,G,] [C,,C,] z || %21
 [E,,E,][A,^CEG] [A,,,A,,][A,CEG] | [^C,,^C,][A,^CEG] [A,,,A,,][A,CEG] | %23
{/[^G,,^G,]} [A,,A,][=CD^F] [D,,D,][CDF] |{/[^G,,^G,]} [A,,A,][=CD^F] [D,,D,][CDF] | %25
 [D,,D,][G,B,D=F] [G,,,G,,][G,B,DF] | [D,,D,][G,B,DF] [G,,,G,,][G,B,DF] | %27
 [C,C][CEG] [C,,C,][_B,CE] | [G,,G,][G,_B,C] [C,,C,][G,B,C] | %29
 [F,,F,][K:treble][CFA][K:bass] [C,,C,][K:treble][CFA] | %30
 [F,,F,][K:treble][CFA][K:bass] [C,,C,][K:treble][CFA] |[K:bass] [C,,C,][G,CE] [G,,,G,,][G,CE] | %32
 [C,,C,][G,CE] [G,,,G,,][G,B,DF] |!8vb(! x7/2 z/ | x7/2!8vb)! z/ | %35
 [C,C]/z/[A,,A,]/z/[^F,,^F,]/z/[^D,,^D,]/ z/ | [C,,C,] z !^![C,,C,] z | %37
 [E,E][A,^CEG] [A,,A,][A,CEG] | [^C,^C][A,^CEG] [A,,A,][A,CEG] | %39
 [A,,A,][^F,A,=CD] [D,,D,][F,A,CD] | [A,,A,][^F,A,CD] [D,,D,][F,A,CD] | %41
 [G,,G,][G,B,D=F] [G,,,G,,][G,B,DF] | [G,,G,][G,B,DF] [G,,,G,,][G,B,DF] |"^L.H." x4 | x4 | %45
 [E,E][A,^CEG] [A,,A,][A,CEG] | [^C,^C][A,^CEG] [A,,A,][A,CEG] | %47
 [A,,A,][^F,A,=CD] [D,,D,][F,A,CD] | [A,,A,][^F,A,CD] [D,,D,][F,A,CD] | %49
 [=F,,=F,][F,A,C] [^F,,^F,][F,A,C] | [G,,G,][G,CE] [A,,A,][G,A,^C] | %51
 [A,,A,][_A,,_A,] [G,,G,][G,,,G,,] | [C,C][G,,G,] !^![C,,C,] z || %53
[K:F][M:2/4] [C,C]/[^C,^C]/[D,D]/[^D,^D]/ [E,E]<[I:staff -1][=C=c] | %54
[I:staff +1] G,,[G,B,CE] C,,[G,B,CE] | [F,,F,]2 [C,,C,]2 | [F,,F,][A,CF] [A,,A,][_A,,_A,] | %57
 [G,,G,][B,CE] [C,,C,][B,CE] | [G,,G,][B,CE] [C,,C,][B,CE] | [F,,F,][A,CF] [C,,C,][A,CF] | %60
 [F,,F,][A,CF] [C,,C,][A,CF] | [C,C]/[^C,^C]/[D,D]/[^D,^D]/ [E,E]<[I:staff -1][=C=c] | %62
[I:staff +1] G,,[G,B,CE] C,,[G,B,CE] | [F,,F,]2 [C,,C,]2 | [F,,F,][A,CF] [C,,C,][A,CF] | %65
 [B,,,B,,][F,B,D] [G,,,G,,][G,B,DF] | [C,,C,][A,CF] [D,,D,][CD^F] | %67
 [D,,D,][G,=B,D=F] [C,,C,][G,_B,CE] | [F,,F,][C,,C,] [F,,,F,,] z ||[K:C] x4 | x2 D, z | %71
 D,/E,/F,/G,/ A,A, | ^G,G, A,2 | x4 | CG,C, z | C,/^C,/D,/^D,/ E,<=C | ^D,<E, C,2 | x4 | x4 | %79
 F,F,- F,F, | [C,C] z !^![C,,C,] z ||[K:F] [C,C]/[^C,^C]/[D,D]/[^D,^D]/ [E,E]<[I:staff -1][=C=c] | %82
[I:staff +1] G,,[G,B,CE] C,,[G,B,CE] | [F,,F,]2 [C,,C,]2 | [F,,F,][A,CF] [A,,A,][_A,,_A,] | %85
 [G,,G,][B,CE] [C,,C,][B,CE] | [G,,G,][B,CE] [C,,C,][B,CE] | [F,,F,][A,CF] [C,,C,][A,CF] | %88
 [F,,F,][A,CF] [C,,C,][A,CF] | [C,C]/[^C,^C]/[D,D]/[^D,^D]/ [E,E]<[I:staff -1][=C=c] | %90
[I:staff +1] G,,[G,B,CE] C,,[G,B,CE] | [F,,F,]2 [C,,C,]2 | [F,,F,][A,CF] [C,,C,][A,CF] | %93
 [B,,,B,,][F,B,D] [G,,,G,,][G,B,DF] | [C,,C,][A,CF] [D,,D,][CD^F] | %95
 [D,,D,][G,=B,D=F] [C,,C,][G,_B,CE] | [F,,F,][C,,C,] [F,,,F,,] z |] %97
V:3
 x4 | x4 | x4 | x4 |: x4 | x2 z/ [^ce]/z/[ce]/ | x4 | x2 z/ [Ac]/z/[Ac]/ | x4 | %9
 x2 z/ [Bd]/z/[Bd]/ | [Cc]/z/[B,B]/z/[_B,_B]/z/[A,A]/ z/ | [_A,_A]/z/[G,G]/z/[^F,^F]/z/[G,G]/ z/ | %12
 x4 | x2 z/ [^ce]/z/[ce]/ | x4 | x2 z/ [Ac]/z/[Ac]/ | x4 | x4 | x4 |1 x4 :|2 x4 || x4 | %22
 x2 z/ [^ce]/z/[ce]/ | x4 | x2 c2 | x4 | x2 z/ [Bd]/z/[Bd]/ | x4 | x4 | x4 | x4 | x!8va(! x3 | x4 | %33
 [cc']/z/[Aa]/z/[^F^f]/z/[I:staff +1][^D^d]/ x/ | %34
[I:staff -1] [cc']/!8va)!z/[A,A]/z/[^F,^F]/z/[I:staff +1][^D,^D]/ x/ | x4 | x4 | x4 | %38
 x2[I:staff -1] z/ [^ce]/z/[ce]/ | x4 | x2 z/ [Ac]/z/[Ac]/ | x4 | x2 z/ [Bd]/z/[Bd]/ | %43
 [Cc]/z/[B,B]/z/[_B,_B]/z/[A,A]/ z/ | [_A,_A]/z/[G,G]/z/[^F,^F]/z/[G,G]/ z/ | x4 | %46
 x2 z/ [^ce]/z/[ce]/ | x4 | x2 z/ [Ac]/z/[Ac]/ | x4 | x4 | x4 | x4 ||[K:F][M:2/4] x4 | x4 | x4 | %56
 x4 | x4 | x4 | x4 | x4 | x4 | x4 | x4 | x4 | x4 | x4 | x4 | x4 ||[K:C] FF EE | DA, x2 | x4 | x4 | %73
 EE DD | x4 | x4 | x4 | [B,B][B,B]- [B,B][B,B] | [_A,_A][A,A]- [A,A][G,G] | FF- FF | x4 || %81
[K:F] x4 | x4 | x4 | x4 | x4 | x4 | x4 | x4 | x4 | x4 | x4 | x4 | x4 | x4 | x4 | x4 |] %97
V:4
 x4 | x4 | x4 | x4 |: x4 | x4 | x4 | x4 | x4 | x4 | x4 | x4 | x4 | x4 | x4 | x4 | x4 | x4 | x4 |1 %19
 x4 :|2 x4 || x4 | x4 | x4 | x4 | x4 | x4 | x4 | x4 | x[K:treble] x[K:bass] x[K:treble] x | %30
 x[K:treble] x[K:bass] x[K:treble] x |[K:bass] x4 | x4 |!8vb(! x4 | x7/2!8vb)! x/ | %35
 x10/3 (3:2:2^D,/D,/ | x4 | x4 | x4 | x4 | x4 | x4 | x4 | x4 | x4 | x4 | x4 | x4 | x4 | x4 | x4 | %51
 x4 | x4 ||[K:F][M:2/4] G,,2 C,,2 | x4 | x4 | x4 | x4 | x4 | x4 | x4 | G,,2 C,,2 | x4 | x4 | x4 | %65
 x4 | x4 | x4 | x4 ||[K:C] x4 | x4 | x4 | x4 | x4 | x4 | x4 | x4 | x4 | x4 | x4 | x4 || %81
[K:F] G,,2 C,,2 | x4 | x4 | x4 | x4 | x4 | x4 | x4 | G,,2 C,,2 | x4 | x4 | x4 | x4 | x4 | x4 | %96
 x4 |] %97

